icons/filled/content/ic_ballot_24px.svg

<svg xmlns="http://www.w3.org/2000/svg" xmlns:xlink="http://www.w3.org/1999/xlink" width="24" height="24" viewBox="0 0 24 24"><defs><path id="a" d="M0 0h24v24H0z"/></defs><clipPath><use xlink:href="#a" overflow="visible"/></clipPath><path fill-rule="evenodd" clip-rule="evenodd" d="M13 9.5h5v-2h-5v2zm0 7h5v-2h-5v2zm6 4.5H5c-1.1 0-2-.9-2-2V5c0-1.1.9-2 2-2h14c1.1 0 2 .9 2 2v14c0 1.1-.9 2-2 2zM6 11h5V6H6v5zm1-4h3v3H7V7zM6 18h5v-5H6v5zm1-4h3v3H7v-3z"/></svg>

<svg xmlns="http://www.w3.org/2000/svg" enable-background="new 0 0 24 24" height="24" viewBox="0 0 24 24" width="24"><rect fill="none" fill-rule="evenodd" height="24" width="24"/><path d="M13,9.5h5v-2h-5V9.5z M13,16.5h5v-2h-5V16.5z M19,21H5c-1.1,0-2-0.9-2-2V5 c0-1.1,0.9-2,2-2h14c1.1,0,2,0.9,2,2v14C21,20.1,20.1,21,19,21z M6,11h5V6H6V11z M7,7h3v3H7V7z M6,18h5v-5H6V18z M7,14h3v3H7V14z" fill-rule="evenodd"/></svg>
